static/assets/template/assets/img/icons/essential/detailed/Nfc.svg

<svg height="119" viewBox="0 0 149 119" width="149" xmlns="http://www.w3.org/2000/svg"><g fill="none" fill-rule="evenodd" transform="translate(1 2)"><g transform="translate(13 12)"><path d="m100.1 72.9-27.7 27.7c-2.8 2.8-7.3 2.8-10.1 0l-59.9-59.9c-2.8-2.8-2.8-7.3 0-10.1l27.7-27.7c2.8-2.8 7.3-2.8 10.1 0l59.9 59.9c2.7 2.8 2.7 7.3 0 10.1z" fill-rule="nonzero"/><path d="m40.2 2.9 59.9 59.9c2.8 2.8 2.8 7.3 0 10.1l-27.7 27.7c-2.8 2.8-7.3 2.8-10.1 0l-59.9-59.9c-2.8-2.8-2.8-7.3 0-10.1l27.7-27.7c2.8-2.8 7.3-2.8 10.1 0z" fill-rule="nonzero"/><path d="m23.304061 10.693587h53.399488v79.699236h-53.399488z" fill-rule="nonzero" transform="matrix(.70710678 -.70710678 .70710678 .70710678 -21.093668 50.161792)"/><g stroke-linecap="round" stroke-linejoin="round"><path d="m9.2 47.5-6.8-6.8c-2.8-2.8-2.8-7.3 0-10.1l27.7-27.7c2.8-2.8 7.3-2.8 10.1 0l59.9 59.9c2.8 2.8 2.8 7.3 0 10.1l-27.7 27.7c-2.8 2.8-7.3 2.8-10.1 0l-38.1-38.1" stroke-width="3"/><path d="m19.6 57.9-.2-.2" stroke-width="3"/><circle cx="82.39037" cy="82.27789" r="2.399977" stroke-width="2.999971" transform="matrix(.70710678 -.70710678 .70710678 .70710678 -34.047673 82.357425)"/><path d="m36.9 7.8 3.7-3.7" stroke-width="3"/><path d="m6.7 37.9 27.2-27.1" stroke-width="3"/><path d="m88 68.4-28.6 28.6" stroke-width="3"/><path d="m96.5 59.9-5.4 5.4" stroke-width="3"/><path d="m17.8 21.1 4.3-4.4" stroke-width="3"/><path d="m14.9 23.9.3-.2" stroke-width="3"/></g></g><g transform="translate(68 29)"><path d="m.6 1.2 15.5 15.5c16 .9 12.9-.4 21.5 7.3.7.7.9 1.7.5 2.6l-3.9 7.2c-.5 1-1.7 1.6-3.2.9-3.7-1.5-.9-.4-14-5.8-.7-.3-1.5-.5-2.2-.6-3.8-.5-7.7 1.7-9.1 5.6-.6 1.6-.1 3.3 1 4.4.3.3.7.6 1.1.8 39.5 19.2 30 16.8 51.1 15.6 2-.1 1.6-1.1 18.2-17.3 1.1-1.1 1.1-2.9 0-4l-29.2-29.2c-2.4-2.4-5.7-3.7-9-3.7z" fill-rule="nonzero"/><path d="m28.1 33.6c-.9.1-.3.2-13.3-5.2-3.8-.5-7.7 1.7-9.1 5.6-.6 1.6-.1 3.3 1 4.4.3.3.7.6 1.1.8 38.3 18.6 30.8 16.7 46.8 15.9 1.1-.5 7.2-7.3 17.1-17.1 1.1-1.1 1.1-2.9 0-4l-29.2-29.2c-2.4-2.4-5.7-3.7-9-3.7l-32.6.3 15.1 15.1c16 .9 12.9-.4 21.5 7.3.7.7.9 1.7.5 2.6-5.3 10.2-4 9.7-9.9 7.2z" fill-rule="nonzero"/><g stroke-linecap="round" stroke-linejoin="round" stroke-width="3"><path d="m77.9 35.3c-.1-.6-.3-1.2-.8-1.7l-3.5-3.5"/><path d="m66.2 22.8-18.3-18.3c-2.4-2.4-5.7-3.7-9-3.7l-38.3.4 15.5 15.5c11.5.6 13.6.2 16.5 2.9l5 4.5c.7.7.9 1.8.5 2.6l-3.9 7.2c-.5 1-1.7 1.6-3.2.9l-14-5.8c-4.5-1.9-9.6.4-11.3 5-.6 1.6-.1 3.3 1 4.4.3.3.7.6 1.1.8 32.7 15.9 32.6 16.6 38.4 16.3l12.6-.7"/><path d="m69.3 25.9-.2-.2"/></g></g><g stroke-linecap="round" stroke-linejoin="round" stroke-width="3"><path d="m12.1 31.8c.1-5.1 2.1-10.2 6-14.2 3.9-3.9 9-5.9 14.2-6"/><path d="m.7 31.8c.1-8 3.2-16 9.3-22.2 6.1-6.1 14.1-9.2 22.2-9.3"/><path d="m.7 31.8c.1-8 3.2-16 9.3-22.2 6.1-6.1 14.1-9.2 22.2-9.3"/></g><g fill-rule="nonzero" transform="translate(40 39)"><path d="m18.2 30.1c-1.1 0-2.2-.7-2.7-1.7-.4-.8-.4-1.6-.1-2.4s.9-1.4 1.7-1.6c.9-.3 2.2-1 3.3-2.1 1.4-1.4 1.7-3.1.6-4.1-.5-.5-1-.7-1.8-.7s-1.9.3-3.3.9c-2.5 1.1-4.5 1.6-6.2 1.6-2 0-3.7-.7-5.2-2.2-2.6-2.6-3-6.4-1.1-9.8l-1.2-1.2c-1.1-1.1-1.1-2.8 0-3.9.5-.5 1.2-.8 2-.8s1.4.3 2 .8l.9.9c.9-.7 1.8-1.2 2.8-1.6.4-.1.7-.2 1.1-.2 1.1 0 2.2.7 2.7 1.7.3.7.3 1.5.1 2.3-.3.7-.9 1.3-1.6 1.6-1 .4-1.9 1-2.7 1.8-1.8 1.8-.9 3.1-.6 3.4.4.4.7.5 1.3.5.8 0 2-.3 3.9-1.1 2.2-.9 3.9-1.3 5.6-1.3 2.2 0 4.1.8 5.8 2.5 2.7 2.7 3.1 6.7 1.2 10.3l1.2 1.3c1.1 1.1 1.1 2.8 0 3.9-.6.6-1.2.8-2 .8s-1.4-.3-2-.8l-1-1c-1.2.9-2.5 1.7-3.8 2.1-.2 0-.5.1-.9.1z"/><path d="m11.1 3.4c.5 0 1.1.3 1.3.8.3.7 0 1.6-.8 1.9-.9.4-2 1-3.2 2.2-2.2 2.2-1.7 4.4-.6 5.5.7.7 1.4 1 2.3 1 1.1 0 2.6-.5 4.5-1.3s3.5-1.2 5-1.2c1.8 0 3.3.6 4.7 2 2.3 2.3 2.8 6 .3 9.4l2.1 2.1c.5.5.5 1.3 0 1.8-.2.2-.6.4-.9.4s-.6-.1-.9-.4l-2-2c-1.3 1.3-2.9 2.3-4.4 2.8-.2.1-.3.1-.5.1-.5 0-1.1-.3-1.3-.8-.4-.8 0-1.6.8-1.9 1.3-.5 2.7-1.3 3.9-2.5 2-2 2.2-4.6.6-6.2-.8-.8-1.7-1.2-2.8-1.2s-2.4.4-3.8 1c-2.1.9-3.9 1.5-5.6 1.5-1.5 0-2.9-.5-4.1-1.7-2.4-2.4-2.5-5.9-.3-9l-2-2c-.5-.5-.5-1.3 0-1.8.2-.2.6-.4.9-.4s.6.1.9.4l1.9 1.9c1.2-1.2 2.4-1.9 3.4-2.3.3 0 .5-.1.6-.1zm0-3c-.6 0-1.2.1-1.7.3-.7.3-1.4.6-2 1.1-.8-.8-1.9-1.2-3-1.2s-2.2.4-3 1.2-1.2 1.9-1.2 3 .4 2.2 1.2 3l.4.4c-1.6 3.7-.9 7.7 1.9 10.6 1.7 1.7 3.8 2.6 6.2 2.6 1.9 0 4-.5 6.8-1.7 1.1-.5 2-.7 2.6-.7.4 0 .5.1.7.3.7.7-.5 1.9-.6 2-1 1-2.1 1.5-2.8 1.8-1.2.4-2.1 1.3-2.6 2.5-.5 1.1-.4 2.4.1 3.6.7 1.6 2.3 2.6 4 2.6.5 0 1-.1 1.5-.3 1-.4 2.1-.9 3.1-1.6l.1.1c.8.8 1.9 1.2 3 1.2s2.2-.4 3-1.2 1.3-1.9 1.3-3-.4-2.2-1.2-3l-.5-.5c1.7-3.9 1-8.1-2-11-1.9-1.9-4.2-2.9-6.8-2.9-1.8 0-3.8.5-6.2 1.5-.6.3-2.5 1-3.3 1-.1 0-.1 0-.1 0s0 0-.1-.1c-.3-.3.4-1.1.6-1.3.7-.7 1.4-1.2 2.2-1.5 1.1-.5 2-1.4 2.4-2.5s.4-2.3-.1-3.4c-.5-1.8-2.1-2.9-3.9-2.9z"/></g></g></svg>

<?xml version="1.0" encoding="UTF-8"?>
<svg width="149px" height="119px" viewBox="0 0 149 119" version="1.1" xmlns="http://www.w3.org/2000/svg" xmlns:xlink="http://www.w3.org/1999/xlink">
    <!-- Generator: Sketch 51.2 (57519) - http://www.bohemiancoding.com/sketch -->
    <title>Nfc</title>
    <desc>Created with Sketch.</desc>
    <defs></defs>
    <g id="Page-1" stroke="none" stroke-width="1" fill="none" fill-rule="evenodd">
        <g id="Nfc" transform="translate(1.000000, 2.000000)">
            <g id="Group" transform="translate(13.000000, 12.000000)">
                <path d="M100.1,72.9 L72.4,100.6 C69.6,103.4 65.1,103.4 62.3,100.6 L2.4,40.7 C-0.4,37.9 -0.4,33.4 2.4,30.6 L30.1,2.9 C32.9,0.1 37.4,0.1 40.2,2.9 L100.1,62.8 C102.8,65.6 102.8,70.1 100.1,72.9 Z" id="Shape" class="fill-neutral" fill-rule="nonzero"></path>
                <path d="M40.2,2.9 L100.1,62.8 C102.9,65.6 102.9,70.1 100.1,72.9 L72.4,100.6 C69.6,103.4 65.1,103.4 62.3,100.6 L2.4,40.7 C-0.4,37.9 -0.4,33.4 2.4,30.6 L30.1,2.9 C32.9,0.1 37.4,0.1 40.2,2.9 Z" id="Shape" class="fill-primary-200" fill-rule="nonzero"></path>
                <rect id="Rectangle-path" class="fill-neutral" fill-rule="nonzero" transform="translate(50.003805, 50.543205) rotate(-45.000000) translate(-50.003805, -50.543205) " x="23.3040611" y="10.6935872" width="53.3994879" height="79.6992357"></rect>
                <path d="M9.2,47.5 L2.4,40.7 C-0.4,37.9 -0.4,33.4 2.4,30.6 L30.1,2.9 C32.9,0.1 37.4,0.1 40.2,2.9 L100.1,62.8 C102.9,65.6 102.9,70.1 100.1,72.9 L72.4,100.6 C69.6,103.4 65.1,103.4 62.3,100.6 L24.2,62.5" id="Shape" class="stroke-primary" stroke-width="3" stroke-linecap="round" stroke-linejoin="round"></path>
                <path d="M19.6,57.9 L19.4,57.7" id="Shape" class="stroke-primary" stroke-width="3" stroke-linecap="round" stroke-linejoin="round"></path>
                <circle id="Oval" class="stroke-primary" stroke-width="2.99997123" stroke-linecap="round" stroke-linejoin="round" transform="translate(82.390370, 82.277890) rotate(-45.000000) translate(-82.390370, -82.277890) " cx="82.39037" cy="82.27789" r="2.39997698"></circle>
                <path d="M36.9,7.8 L40.6,4.1" id="Shape" class="stroke-primary" stroke-width="3" stroke-linecap="round" stroke-linejoin="round"></path>
                <path d="M6.7,37.9 L33.9,10.8" id="Shape" class="stroke-primary" stroke-width="3" stroke-linecap="round" stroke-linejoin="round"></path>
                <path d="M88,68.4 L59.4,97" id="Shape" class="stroke-primary" stroke-width="3" stroke-linecap="round" stroke-linejoin="round"></path>
                <path d="M96.5,59.9 L91.1,65.3" id="Shape" class="stroke-primary" stroke-width="3" stroke-linecap="round" stroke-linejoin="round"></path>
                <path d="M17.8,21.1 L22.1,16.7" id="Shape" class="stroke-primary" stroke-width="3" stroke-linecap="round" stroke-linejoin="round"></path>
                <path d="M14.9,23.9 L15.2,23.7" id="Shape" class="stroke-primary" stroke-width="3" stroke-linecap="round" stroke-linejoin="round"></path>
            </g>
            <g id="Group" transform="translate(68.000000, 29.000000)">
                <path d="M0.6,1.2 L16.1,16.7 C32.1,17.6 29,16.3 37.6,24 C38.3,24.7 38.5,25.7 38.1,26.6 L34.2,33.8 C33.7,34.8 32.5,35.4 31,34.7 C27.3,33.2 30.1,34.3 17,28.9 C16.3,28.6 15.5,28.4 14.8,28.3 C11,27.8 7.1,30 5.7,33.9 C5.1,35.5 5.6,37.2 6.7,38.3 C7,38.6 7.4,38.9 7.8,39.1 C47.3,58.3 37.8,55.9 58.9,54.7 C60.9,54.6 60.5,53.6 77.1,37.4 C78.2,36.3 78.2,34.5 77.1,33.4 L47.9,4.2 C45.5,1.8 42.2,0.5 38.9,0.5 L0.6,1.2 Z" id="Shape" class="fill-neutral" fill-rule="nonzero"></path>
                <path d="M28.1,33.6 C27.2,33.7 27.8,33.8 14.8,28.4 C11,27.9 7.1,30.1 5.7,34 C5.1,35.6 5.6,37.3 6.7,38.4 C7,38.7 7.4,39 7.8,39.2 C46.1,57.8 38.6,55.9 54.6,55.1 C55.7,54.6 61.8,47.8 71.7,38 C72.8,36.9 72.8,35.1 71.7,34 L42.5,4.8 C40.1,2.4 36.8,1.1 33.5,1.1 L0.9,1.4 L16,16.5 C32,17.4 28.9,16.1 37.5,23.8 C38.2,24.5 38.4,25.5 38,26.4 C32.7,36.6 34,36.1 28.1,33.6 Z" id="Shape" class="fill-primary-100" fill-rule="nonzero"></path>
                <path d="M77.9,35.3 C77.8,34.7 77.6,34.1 77.1,33.6 L73.6,30.1" id="Shape" class="stroke-primary" stroke-width="3" stroke-linecap="round" stroke-linejoin="round"></path>
                <path d="M66.2,22.8 L47.9,4.5 C45.5,2.1 42.2,0.8 38.9,0.8 L0.6,1.2 L16.1,16.7 C27.6,17.3 29.7,16.9 32.6,19.6 L37.6,24.1 C38.3,24.8 38.5,25.9 38.1,26.7 L34.2,33.9 C33.7,34.9 32.5,35.5 31,34.8 L17,29 C12.5,27.1 7.4,29.4 5.7,34 C5.1,35.6 5.6,37.3 6.7,38.4 C7,38.7 7.4,39 7.8,39.2 C40.5,55.1 40.4,55.8 46.2,55.5 L58.8,54.8" id="Shape" class="stroke-primary" stroke-width="3" stroke-linecap="round" stroke-linejoin="round"></path>
                <path d="M69.3,25.9 L69.1,25.7" id="Shape" class="stroke-primary" stroke-width="3" stroke-linecap="round" stroke-linejoin="round"></path>
            </g>
            <path d="M12.1,31.8 C12.2,26.7 14.2,21.6 18.1,17.6 C22,13.7 27.1,11.7 32.3,11.6" id="Shape" class="stroke-primary-300" stroke-width="3" stroke-linecap="round" stroke-linejoin="round"></path>
            <path d="M0.7,31.8 C0.8,23.8 3.9,15.8 10,9.6 C16.1,3.5 24.1,0.4 32.2,0.3" id="Shape" class="stroke-primary-300" stroke-width="3" stroke-linecap="round" stroke-linejoin="round"></path>
            <path d="M0.7,31.8 C0.8,23.8 3.9,15.8 10,9.6 C16.1,3.5 24.1,0.4 32.2,0.3" id="Shape" class="stroke-primary-300" stroke-width="3" stroke-linecap="round" stroke-linejoin="round"></path>
            <g id="Group" transform="translate(40.000000, 39.000000)" fill-rule="nonzero">
                <path d="M18.2,30.1 C17.1,30.1 16,29.4 15.5,28.4 C15.1,27.6 15.1,26.8 15.4,26 C15.7,25.2 16.3,24.6 17.1,24.4 C18,24.1 19.3,23.4 20.4,22.3 C21.8,20.9 22.1,19.2 21,18.2 C20.5,17.7 20,17.5 19.2,17.5 C18.4,17.5 17.3,17.8 15.9,18.4 C13.4,19.5 11.4,20 9.7,20 C7.7,20 6,19.3 4.5,17.8 C1.9,15.2 1.5,11.4 3.4,8 L2.2,6.8 C1.1,5.7 1.1,4 2.2,2.9 C2.7,2.4 3.4,2.1 4.2,2.1 C5,2.1 5.6,2.4 6.2,2.9 L7.1,3.8 C8,3.1 8.9,2.6 9.9,2.2 C10.3,2.1 10.6,2 11,2 C12.1,2 13.2,2.7 13.7,3.7 C14,4.4 14,5.2 13.8,6 C13.5,6.7 12.9,7.3 12.2,7.6 C11.2,8 10.3,8.6 9.5,9.4 C7.7,11.2 8.6,12.5 8.9,12.8 C9.3,13.2 9.6,13.3 10.2,13.3 C11,13.3 12.2,13 14.1,12.2 C16.3,11.3 18,10.9 19.7,10.9 C21.9,10.9 23.8,11.7 25.5,13.4 C28.2,16.1 28.6,20.1 26.7,23.7 L27.9,25 C29,26.1 29,27.8 27.9,28.9 C27.3,29.5 26.7,29.7 25.9,29.7 C25.1,29.7 24.5,29.4 23.9,28.9 L22.9,27.9 C21.7,28.8 20.4,29.6 19.1,30 C18.9,30 18.6,30.1 18.2,30.1 Z" id="Shape" class="fill-neutral"></path>
                <path d="M11.1,3.4 C11.6,3.4 12.2,3.7 12.4,4.2 C12.7,4.9 12.4,5.8 11.6,6.1 C10.7,6.5 9.6,7.1 8.4,8.3 C6.2,10.5 6.7,12.7 7.8,13.8 C8.5,14.5 9.2,14.8 10.1,14.8 C11.2,14.8 12.7,14.3 14.6,13.5 C16.5,12.7 18.1,12.3 19.6,12.3 C21.4,12.3 22.9,12.9 24.3,14.3 C26.6,16.6 27.1,20.3 24.6,23.7 L26.7,25.8 C27.2,26.3 27.2,27.1 26.7,27.6 C26.5,27.8 26.1,28 25.8,28 C25.5,28 25.2,27.9 24.9,27.6 L22.9,25.6 C21.6,26.9 20,27.9 18.5,28.4 C18.3,28.5 18.2,28.5 18,28.5 C17.5,28.5 16.9,28.2 16.7,27.7 C16.3,26.9 16.7,26.1 17.5,25.8 C18.8,25.3 20.2,24.5 21.4,23.3 C23.4,21.3 23.6,18.7 22,17.1 C21.2,16.3 20.3,15.9 19.2,15.9 C18.1,15.9 16.8,16.3 15.4,16.9 C13.3,17.8 11.5,18.4 9.8,18.4 C8.3,18.4 6.9,17.9 5.7,16.7 C3.3,14.3 3.2,10.8 5.4,7.7 L3.4,5.7 C2.9,5.2 2.9,4.4 3.4,3.9 C3.6,3.7 4,3.5 4.3,3.5 C4.6,3.5 4.9,3.6 5.2,3.9 L7.1,5.8 C8.3,4.6 9.5,3.9 10.5,3.5 C10.8,3.5 11,3.4 11.1,3.4 Z M11.1,0.4 C10.5,0.4 9.9,0.5 9.4,0.7 C8.7,1 8,1.3 7.4,1.8 C6.6,1 5.5,0.6 4.4,0.6 C3.3,0.6 2.2,1 1.4,1.8 C0.6,2.6 0.2,3.7 0.2,4.8 C0.2,5.9 0.6,7 1.4,7.8 L1.8,8.2 C0.2,11.9 0.9,15.9 3.7,18.8 C5.4,20.5 7.5,21.4 9.9,21.4 C11.8,21.4 13.9,20.9 16.7,19.7 C17.8,19.2 18.7,19 19.3,19 C19.7,19 19.8,19.1 20,19.3 C20.7,20 19.5,21.2 19.4,21.3 C18.4,22.3 17.3,22.8 16.6,23.1 C15.4,23.5 14.5,24.4 14,25.6 C13.5,26.7 13.6,28 14.1,29.2 C14.8,30.8 16.4,31.8 18.1,31.8 C18.6,31.8 19.1,31.7 19.6,31.5 C20.6,31.1 21.7,30.6 22.7,29.9 L22.8,30 C23.6,30.8 24.7,31.2 25.8,31.2 C26.9,31.2 28,30.8 28.8,30 C29.6,29.2 30.1,28.1 30.1,27 C30.1,25.9 29.7,24.8 28.9,24 L28.4,23.5 C30.1,19.6 29.4,15.4 26.4,12.5 C24.5,10.6 22.2,9.6 19.6,9.6 C17.8,9.6 15.8,10.1 13.4,11.1 C12.8,11.4 10.9,12.1 10.1,12.1 C10,12.1 10,12.1 10,12.1 C10,12.1 10,12.1 9.9,12 C9.6,11.7 10.3,10.9 10.5,10.7 C11.2,10 11.9,9.5 12.7,9.2 C13.8,8.7 14.7,7.8 15.1,6.7 C15.5,5.6 15.5,4.4 15,3.3 C14.5,1.5 12.9,0.4 11.1,0.4 Z" id="Shape" class="fill-primary"></path>
            </g>
        </g>
    </g>
</svg>
